X:1
T: Thomond Bridge
Z: LongNote
S: https://thesession.org/tunes/3291#setting16352
R: hornpipe
M: 4/4
L: 1/8
K: Gmaj
|:ba|gedB cedc|B2G2 G2ga|bagf ge^ce|f2d2 d2dB|
cegc' B/^c/d gb|Adfa GBdg|e/f/g ab c'/b/a fg|aggf g2:|
|:dc|Bg~g2 dg~g2|bagf edcB|a/b/a ^gb ~a3b|c'bag fedc|
Bg~g2 dg~g2|bagf edcB|cedc BAGF|A2G2 G2:|

